X:520
T: Sixpenny Money
M: 6/8
L: 1/8
R: Jig
K: D
d|fAA fAA|BAG FGE|DED AFA|dfd e2d|
fAA fAA|BAG FGE|DED AFA|dfd e2 :|
d|fef gfg|afd ecA|f2f gfg|afd e2d|
fef gfg|afd edB|ABA AFA|dfd e2 :|
